Newaita-dark/apps/48/ghex.svg

<svg height="48pt" viewBox="0 0 48 48" width="48pt" xmlns="http://www.w3.org/2000/svg" xmlns:xlink="http://www.w3.org/1999/xlink"><linearGradient id="a" gradientTransform="matrix(.234398 0 0 .093759 -44.156621 20.158178)" gradientUnits="userSpaceOnUse" x1="254" x2="254" y1="233.5" y2="254.666672"><stop offset="0" stop-opacity=".27451"/><stop offset="1" stop-opacity="0"/></linearGradient><linearGradient id="b"><stop offset="0" stop-opacity=".313726"/><stop offset=".222222" stop-opacity=".27451"/><stop offset="1" stop-opacity="0"/></linearGradient><radialGradient id="c" cx="450.908936" cy="189.579361" gradientTransform="matrix(.00000026 -.117199 -.210958 -.00000015 57.358052 95.392999)" gradientUnits="userSpaceOnUse" r="21.166656" xlink:href="#b"/><radialGradient id="d" cx="450.908936" cy="189.579361" gradientTransform="matrix(-.00000026 .117199 .210958 .00000015 -26.597293 -11.291218)" gradientUnits="userSpaceOnUse" r="21.166656" xlink:href="#b"/><radialGradient id="e" cx="450.908936" cy="189.579361" gradientTransform="matrix(-.00000026 -.117199 .210958 -.00000015 -26.597293 95.392999)" gradientUnits="userSpaceOnUse" r="21.166656" xlink:href="#b"/><radialGradient id="f" cx="450.908936" cy="189.579361" gradientTransform="matrix(.00000026 .117199 -.210958 .00000015 57.358049 -11.291219)" gradientUnits="userSpaceOnUse" r="21.166656" xlink:href="#b"/><linearGradient id="g"><stop offset="0" stop-color="#9ccc65"/><stop offset="1" stop-color="#aed581"/></linearGradient><linearGradient id="h" gradientUnits="userSpaceOnUse" x1="16.42954600005" x2="16.42954600005" xlink:href="#g" y1="42.0509015" y2="23.19752899998"/><linearGradient id="i" gradientUnits="userSpaceOnUse" x1="32.75326700005" x2="32.75326700005" xlink:href="#g" y1="32.6413705" y2="13.78799799998"/><linearGradient id="j" gradientUnits="userSpaceOnUse" x1="16.42954600005" x2="16.42954600005" xlink:href="#g" y1="23.2014935" y2="4.34812099998"/><path d="m12.898438 41.902344h4.960937v2.207031h-4.960937zm0 0" fill="url(#a)"/><path d="m17.859375 42.050781h3.972656v-1.984375h-3.972656zm0 0" fill="url(#c)"/><path d="m12.898438 42.050781h-3.96875v1.984375h3.96875zm0 0" fill="url(#d)"/><path d="m12.898438 42.050781h-3.96875v-1.984375h3.96875zm0 0" fill="url(#e)"/><path d="m17.859375 42.050781h3.972656v1.984375h-3.972656zm0 0" fill="url(#f)"/><path d="m5.144531 32.585938c-.007812.308593.070313.617187.226563.882812l4.46875 7.742188c.300781.519531.855468.839843 1.460937.839843h8.933594c.605469 0 1.160156-.320312 1.460937-.839843l4.46875-7.742188c.300782-.519531.300782-1.164062 0-1.683594l-4.46875-7.742187c-.300781-.519531-.855468-.839844-1.460937-.839844h-8.933594c-.605469 0-1.160156.320313-1.460937.839844l-4.46875 7.742187c-.140625.242188-.21875.519532-.226563.800782zm0 0" fill="url(#h)"/><path d="m11.300781 23.203125c-.605469 0-1.160156.320313-1.460937.839844l-4.46875 7.742187c-.140625.242188-.21875.519532-.226563.800782-.003906.148437.011719.292968.046875.429687.039063-.15625.097656-.308594.179688-.449219l4.46875-7.742187c.300781-.519531.855468-.839844 1.460937-.839844h8.933594c.605469 0 1.160156.320313 1.460937.839844l4.46875 7.742187c.082032.140625.144532.292969.179688.449219.097656-.410156.039062-.855469-.179688-1.230469l-4.46875-7.742187c-.300781-.519531-.855468-.839844-1.460937-.839844zm0 0" fill="#fff" fill-opacity=".392157"/><path d="m11.300781 42.050781c-.605469 0-1.160156-.320312-1.460937-.84375l-4.46875-7.738281c-.140625-.246094-.21875-.519531-.226563-.804688-.003906-.144531.011719-.289062.046875-.429687.039063.160156.097656.3125.179688.453125l4.46875 7.738281c.300781.523438.855468.84375 1.460937.84375h8.933594c.605469 0 1.160156-.320312 1.460937-.84375l4.46875-7.738281c.082032-.144531.144532-.296875.179688-.453125.097656.414063.039062.855469-.179688 1.234375l-4.46875 7.738281c-.300781.523438-.855468.84375-1.460937.84375zm0 0" fill-opacity=".235294"/><path d="m27.80475 132.550144c-.083325 3.291352.749929 6.582705 2.416436 9.415767l47.662115 82.575448c3.208027 5.541138 9.124129 8.957478 15.581846 8.957478h95.282567c6.457717 0 12.373819-3.41634 15.581846-8.957478l47.662115-82.575448c3.208027-5.541137 3.208027-12.415481 0-17.956618l-47.662115-82.575448c-3.208027-5.541137-9.124129-8.957478-15.581846-8.957478h-95.282567c-6.457717 0-12.373819 3.416341-15.581846 8.957478l-47.662115 82.575448c-1.499857 2.583087-2.33311 5.541137-2.416436 8.540851zm0 0" fill="none" stroke="#212121" stroke-linecap="round" stroke-linejoin="round" stroke-width="3" transform="matrix(.093759 0 0 .093759 2.537587 20.158175)"/><path d="m21.46875 23.175781c-.007812.3125.070312.617188.226562.882813l4.46875 7.742187c.300782.519531.855469.84375 1.460938.84375h8.933594c.605468-.003906 1.160156-.324219 1.460937-.84375l4.46875-7.742187c.300781-.519532.300781-1.164063 0-1.683594l-4.46875-7.738281c-.300781-.523438-.855469-.84375-1.460937-.84375h-8.933594c-.605469 0-1.160156.320312-1.460938.84375l-4.46875 7.738281c-.140624.242188-.21875.519531-.226562.800781zm0 0" fill="url(#i)"/><path d="m27.625 13.792969c-.605469 0-1.160156.320312-1.460938.84375l-4.46875 7.738281c-.140624.242188-.21875.519531-.226562.800781-.003906.148438.011719.292969.046875.433594.035156-.160156.097656-.3125.179687-.453125l4.46875-7.738281c.300782-.523438.855469-.84375 1.460938-.84375h8.933594c.605468 0 1.160156.320312 1.460937.84375l4.46875 7.738281c.082031.144531.140625.296875.179688.453125.097656-.414063.039062-.855469-.179688-1.234375l-4.46875-7.738281c-.300781-.523438-.855469-.84375-1.460937-.84375zm0 0" fill="#fff" fill-opacity=".392157"/><path d="m27.625 32.640625c-.605469 0-1.160156-.320313-1.460938-.84375l-4.46875-7.738281c-.140624-.242188-.21875-.519532-.226562-.804688-.003906-.144531.011719-.289062.046875-.429687.035156.160156.097656.3125.179687.453125l4.46875 7.738281c.300782.523437.855469.84375 1.460938.84375h8.933594c.605468 0 1.160156-.320313 1.460937-.84375l4.46875-7.738281c.082031-.144532.140625-.296875.179688-.453125.097656.414062.039062.855469-.179688 1.234375l-4.46875 7.738281c-.300781.523437-.855469.84375-1.460937.84375zm0 0" fill-opacity=".235294"/><path d="m27.810058 132.54347c-.083325 3.333015.749929 6.582705 2.416436 9.415768l47.662115 82.575447c3.208027 5.541138 9.124129 8.999141 15.581846 8.999141h95.282567c6.457717-.041663 12.373819-3.458003 15.581846-8.999141l47.662115-82.575447c3.208027-5.541138 3.208027-12.415481 0-17.956619l-47.662115-82.533785c-3.208027-5.5828-9.124129-8.999141-15.581846-8.999141h-95.282567c-6.457717 0-12.373819 3.416341-15.581846 8.999141l-47.662115 82.533785c-1.499857 2.583087-2.333111 5.541138-2.416436 8.540851zm0 0" fill="none" stroke="#212121" stroke-linecap="round" stroke-linejoin="round" stroke-width="3" transform="matrix(.093759 0 0 .093759 18.861308 10.748644)"/><path d="m5.144531 13.738281c-.007812.308594.070313.613281.226563.882813l4.46875 7.738281c.300781.523437.855468.84375 1.460937.84375h8.933594c.605469 0 1.160156-.320313 1.460937-.84375l4.46875-7.738281c.300782-.523438.300782-1.164063 0-1.6875l-4.46875-7.738282c-.300781-.523437-.855468-.84375-1.460937-.84375h-8.933594c-.605469 0-1.160156.320313-1.460937.84375l-4.46875 7.738282c-.140625.246094-.21875.523437-.226563.804687zm0 0" fill="url(#j)"/><path d="m11.300781 4.351562c-.605469 0-1.160156.320313-1.460937.84375l-4.46875 7.738282c-.140625.246094-.21875.523437-.226563.804687-.003906.144531.011719.289063.046875.429688.039063-.15625.097656-.308594.179688-.453125l4.46875-7.738282c.300781-.523437.855468-.84375 1.460937-.84375h8.933594c.605469 0 1.160156.320313 1.460937.84375l4.46875 7.738282c.082032.144531.144532.296875.179688.453125.097656-.414063.039062-.855469-.179688-1.234375l-4.46875-7.738282c-.300781-.523437-.855468-.84375-1.460937-.84375zm0 0" fill="#fff" fill-opacity=".392157"/><path d="m11.300781 23.203125c-.605469 0-1.160156-.324219-1.460937-.84375l-4.46875-7.738281c-.140625-.246094-.21875-.523438-.226563-.804688-.003906-.144531.011719-.289062.046875-.429687.039063.15625.097656.308593.179688.449219l4.46875 7.742187c.300781.519531.855468.84375 1.460937.84375h8.933594c.605469 0 1.160156-.324219 1.460937-.84375l4.46875-7.742187c.082032-.140626.144532-.292969.179688-.449219.097656.410156.039062.855469-.179688 1.234375l-4.46875 7.738281c-.300781.519531-.855468.84375-1.460937.84375zm0 0" fill-opacity=".235294"/><path d="m27.80475 132.568827c-.083325 3.291352.749929 6.541042 2.416436 9.415767l47.662115 82.533786c3.208027 5.5828 9.124129 8.99914 15.581846 8.99914h95.282567c6.457717 0 12.373819-3.41634 15.581846-8.99914l47.662115-82.533786c3.208027-5.5828 3.208027-12.415481 0-17.998281l-47.662115-82.533785c-3.208027-5.5828-9.124129-8.999141-15.581846-8.999141h-95.282567c-6.457717 0-12.373819 3.416341-15.581846 8.999141l-47.662115 82.533785c-1.499857 2.62475-2.33311 5.5828-2.416436 8.582514zm0 0" fill="none" stroke="#212121" stroke-linecap="round" stroke-linejoin="round" stroke-width="3" transform="matrix(.093759 0 0 .093759 2.537587 1.308767)"/></svg>

<?xml version="1.0" encoding="UTF-8"?>
<svg xmlns="http://www.w3.org/2000/svg" xmlns:xlink="http://www.w3.org/1999/xlink" width="48pt" height="48pt" viewBox="0 0 48 48" version="1.1">
<defs>
<linearGradient id="linear0" gradientUnits="userSpaceOnUse" x1="254" y1="233.5" x2="254" y2="254.666672" gradientTransform="matrix(0.234398,0,0,0.093759,-44.156621,20.158178)">
<stop offset="0" style="stop-color:rgb(0%,0%,0%);stop-opacity:0.27451;"/>
<stop offset="1" style="stop-color:rgb(0%,0%,0%);stop-opacity:0;"/>
</linearGradient>
<radialGradient id="radial0" gradientUnits="userSpaceOnUse" cx="450.908936" cy="189.579361" fx="450.908936" fy="189.579361" r="21.166656" gradientTransform="matrix(0.000000261256,-0.117199,-0.210958,-0.000000152308,57.358052,95.392999)">
<stop offset="0" style="stop-color:rgb(0%,0%,0%);stop-opacity:0.313726;"/>
<stop offset="0.222222" style="stop-color:rgb(0%,0%,0%);stop-opacity:0.27451;"/>
<stop offset="1" style="stop-color:rgb(0%,0%,0%);stop-opacity:0;"/>
</radialGradient>
<radialGradient id="radial1" gradientUnits="userSpaceOnUse" cx="450.908936" cy="189.579361" fx="450.908936" fy="189.579361" r="21.166656" gradientTransform="matrix(-0.000000261256,0.117199,0.210958,0.000000152308,-26.597293,-11.291218)">
<stop offset="0" style="stop-color:rgb(0%,0%,0%);stop-opacity:0.313726;"/>
<stop offset="0.222222" style="stop-color:rgb(0%,0%,0%);stop-opacity:0.27451;"/>
<stop offset="1" style="stop-color:rgb(0%,0%,0%);stop-opacity:0;"/>
</radialGradient>
<radialGradient id="radial2" gradientUnits="userSpaceOnUse" cx="450.908936" cy="189.579361" fx="450.908936" fy="189.579361" r="21.166656" gradientTransform="matrix(-0.000000261256,-0.117199,0.210958,-0.000000152308,-26.597293,95.392999)">
<stop offset="0" style="stop-color:rgb(0%,0%,0%);stop-opacity:0.313726;"/>
<stop offset="0.222222" style="stop-color:rgb(0%,0%,0%);stop-opacity:0.27451;"/>
<stop offset="1" style="stop-color:rgb(0%,0%,0%);stop-opacity:0;"/>
</radialGradient>
<radialGradient id="radial3" gradientUnits="userSpaceOnUse" cx="450.908936" cy="189.579361" fx="450.908936" fy="189.579361" r="21.166656" gradientTransform="matrix(0.000000261256,0.117199,-0.210958,0.000000152308,57.358049,-11.291219)">
<stop offset="0" style="stop-color:rgb(0%,0%,0%);stop-opacity:0.313726;"/>
<stop offset="0.222222" style="stop-color:rgb(0%,0%,0%);stop-opacity:0.27451;"/>
<stop offset="1" style="stop-color:rgb(0%,0%,0%);stop-opacity:0;"/>
</radialGradient>
<linearGradient id="linear1" gradientUnits="userSpaceOnUse" x1="148.166672" y1="233.5" x2="148.166672" y2="32.416664" gradientTransform="matrix(0.093759,0,0,0.093759,2.537587,20.158175)">
<stop offset="0" style="stop-color:rgb(61.176473%,80.000001%,39.607844%);stop-opacity:1;"/>
<stop offset="1" style="stop-color:rgb(68.235296%,83.529413%,50.588238%);stop-opacity:1;"/>
</linearGradient>
<linearGradient id="linear2" gradientUnits="userSpaceOnUse" x1="148.166672" y1="233.5" x2="148.166672" y2="32.416664" gradientTransform="matrix(0.093759,0,0,0.093759,18.861308,10.748644)">
<stop offset="0" style="stop-color:rgb(61.176473%,80.000001%,39.607844%);stop-opacity:1;"/>
<stop offset="1" style="stop-color:rgb(68.235296%,83.529413%,50.588238%);stop-opacity:1;"/>
</linearGradient>
<linearGradient id="linear3" gradientUnits="userSpaceOnUse" x1="148.166672" y1="233.5" x2="148.166672" y2="32.416664" gradientTransform="matrix(0.093759,0,0,0.093759,2.537587,1.308767)">
<stop offset="0" style="stop-color:rgb(61.176473%,80.000001%,39.607844%);stop-opacity:1;"/>
<stop offset="1" style="stop-color:rgb(68.235296%,83.529413%,50.588238%);stop-opacity:1;"/>
</linearGradient>
</defs>
<g id="surface1">
<path style=" stroke:none;fill-rule:nonzero;fill:url(#linear0);" d="M 12.898438 41.902344 L 17.859375 41.902344 L 17.859375 44.109375 L 12.898438 44.109375 Z M 12.898438 41.902344 "/>
<path style=" stroke:none;fill-rule:nonzero;fill:url(#radial0);" d="M 17.859375 42.050781 L 21.832031 42.050781 L 21.832031 40.066406 L 17.859375 40.066406 Z M 17.859375 42.050781 "/>
<path style=" stroke:none;fill-rule:nonzero;fill:url(#radial1);" d="M 12.898438 42.050781 L 8.929688 42.050781 L 8.929688 44.035156 L 12.898438 44.035156 Z M 12.898438 42.050781 "/>
<path style=" stroke:none;fill-rule:nonzero;fill:url(#radial2);" d="M 12.898438 42.050781 L 8.929688 42.050781 L 8.929688 40.066406 L 12.898438 40.066406 Z M 12.898438 42.050781 "/>
<path style=" stroke:none;fill-rule:nonzero;fill:url(#radial3);" d="M 17.859375 42.050781 L 21.832031 42.050781 L 21.832031 44.035156 L 17.859375 44.035156 Z M 17.859375 42.050781 "/>
<path style=" stroke:none;fill-rule:nonzero;fill:url(#linear1);" d="M 5.144531 32.585938 C 5.136719 32.894531 5.214844 33.203125 5.371094 33.46875 L 9.839844 41.210938 C 10.140625 41.730469 10.695312 42.050781 11.300781 42.050781 L 20.234375 42.050781 C 20.839844 42.050781 21.394531 41.730469 21.695312 41.210938 L 26.164062 33.46875 C 26.464844 32.949219 26.464844 32.304688 26.164062 31.785156 L 21.695312 24.042969 C 21.394531 23.523438 20.839844 23.203125 20.234375 23.203125 L 11.300781 23.203125 C 10.695312 23.203125 10.140625 23.523438 9.839844 24.042969 L 5.371094 31.785156 C 5.230469 32.027344 5.152344 32.304688 5.144531 32.585938 Z M 5.144531 32.585938 "/>
<path style=" stroke:none;fill-rule:nonzero;fill:rgb(100%,100%,100%);fill-opacity:0.392157;" d="M 11.300781 23.203125 C 10.695312 23.203125 10.140625 23.523438 9.839844 24.042969 L 5.371094 31.785156 C 5.230469 32.027344 5.152344 32.304688 5.144531 32.585938 C 5.140625 32.734375 5.15625 32.878906 5.191406 33.015625 C 5.230469 32.859375 5.289062 32.707031 5.371094 32.566406 L 9.839844 24.824219 C 10.140625 24.304688 10.695312 23.984375 11.300781 23.984375 L 20.234375 23.984375 C 20.839844 23.984375 21.394531 24.304688 21.695312 24.824219 L 26.164062 32.566406 C 26.246094 32.707031 26.308594 32.859375 26.34375 33.015625 C 26.441406 32.605469 26.382812 32.160156 26.164062 31.785156 L 21.695312 24.042969 C 21.394531 23.523438 20.839844 23.203125 20.234375 23.203125 Z M 11.300781 23.203125 "/>
<path style=" stroke:none;fill-rule:nonzero;fill:rgb(0%,0%,0%);fill-opacity:0.235294;" d="M 11.300781 42.050781 C 10.695312 42.050781 10.140625 41.730469 9.839844 41.207031 L 5.371094 33.46875 C 5.230469 33.222656 5.152344 32.949219 5.144531 32.664062 C 5.140625 32.519531 5.15625 32.375 5.191406 32.234375 C 5.230469 32.394531 5.289062 32.546875 5.371094 32.6875 L 9.839844 40.425781 C 10.140625 40.949219 10.695312 41.269531 11.300781 41.269531 L 20.234375 41.269531 C 20.839844 41.269531 21.394531 40.949219 21.695312 40.425781 L 26.164062 32.6875 C 26.246094 32.542969 26.308594 32.390625 26.34375 32.234375 C 26.441406 32.648438 26.382812 33.089844 26.164062 33.46875 L 21.695312 41.207031 C 21.394531 41.730469 20.839844 42.050781 20.234375 42.050781 Z M 11.300781 42.050781 "/>
<path style="fill:none;stroke-width:3;stroke-linecap:round;stroke-linejoin:round;stroke:rgb(12.941177%,12.941177%,12.941177%);stroke-opacity:1;stroke-miterlimit:4;" d="M 27.80475 132.550144 C 27.721425 135.841496 28.554679 139.132849 30.221186 141.965911 L 77.883301 224.541359 C 81.091328 230.082497 87.00743 233.498837 93.465147 233.498837 L 188.747714 233.498837 C 195.205431 233.498837 201.121533 230.082497 204.32956 224.541359 L 251.991675 141.965911 C 255.199702 136.424774 255.199702 129.55043 251.991675 124.009293 L 204.32956 41.433845 C 201.121533 35.892708 195.205431 32.476367 188.747714 32.476367 L 93.465147 32.476367 C 87.00743 32.476367 81.091328 35.892708 77.883301 41.433845 L 30.221186 124.009293 C 28.721329 126.59238 27.888076 129.55043 27.80475 132.550144 Z M 27.80475 132.550144 " transform="matrix(0.093759,0,0,0.093759,2.537587,20.158175)"/>
<path style=" stroke:none;fill-rule:nonzero;fill:url(#linear2);" d="M 21.46875 23.175781 C 21.460938 23.488281 21.539062 23.792969 21.695312 24.058594 L 26.164062 31.800781 C 26.464844 32.320312 27.019531 32.644531 27.625 32.644531 L 36.558594 32.644531 C 37.164062 32.640625 37.71875 32.320312 38.019531 31.800781 L 42.488281 24.058594 C 42.789062 23.539062 42.789062 22.894531 42.488281 22.375 L 38.019531 14.636719 C 37.71875 14.113281 37.164062 13.792969 36.558594 13.792969 L 27.625 13.792969 C 27.019531 13.792969 26.464844 14.113281 26.164062 14.636719 L 21.695312 22.375 C 21.554688 22.617188 21.476562 22.894531 21.46875 23.175781 Z M 21.46875 23.175781 "/>
<path style=" stroke:none;fill-rule:nonzero;fill:rgb(100%,100%,100%);fill-opacity:0.392157;" d="M 27.625 13.792969 C 27.019531 13.792969 26.464844 14.113281 26.164062 14.636719 L 21.695312 22.375 C 21.554688 22.617188 21.476562 22.894531 21.46875 23.175781 C 21.464844 23.324219 21.480469 23.46875 21.515625 23.609375 C 21.550781 23.449219 21.613281 23.296875 21.695312 23.15625 L 26.164062 15.417969 C 26.464844 14.894531 27.019531 14.574219 27.625 14.574219 L 36.558594 14.574219 C 37.164062 14.574219 37.71875 14.894531 38.019531 15.417969 L 42.488281 23.15625 C 42.570312 23.300781 42.628906 23.453125 42.667969 23.609375 C 42.765625 23.195312 42.707031 22.753906 42.488281 22.375 L 38.019531 14.636719 C 37.71875 14.113281 37.164062 13.792969 36.558594 13.792969 Z M 27.625 13.792969 "/>
<path style=" stroke:none;fill-rule:nonzero;fill:rgb(0%,0%,0%);fill-opacity:0.235294;" d="M 27.625 32.640625 C 27.019531 32.640625 26.464844 32.320312 26.164062 31.796875 L 21.695312 24.058594 C 21.554688 23.816406 21.476562 23.539062 21.46875 23.253906 C 21.464844 23.109375 21.480469 22.964844 21.515625 22.824219 C 21.550781 22.984375 21.613281 23.136719 21.695312 23.277344 L 26.164062 31.015625 C 26.464844 31.539062 27.019531 31.859375 27.625 31.859375 L 36.558594 31.859375 C 37.164062 31.859375 37.71875 31.539062 38.019531 31.015625 L 42.488281 23.277344 C 42.570312 23.132812 42.628906 22.980469 42.667969 22.824219 C 42.765625 23.238281 42.707031 23.679688 42.488281 24.058594 L 38.019531 31.796875 C 37.71875 32.320312 37.164062 32.640625 36.558594 32.640625 Z M 27.625 32.640625 "/>
<path style="fill:none;stroke-width:3;stroke-linecap:round;stroke-linejoin:round;stroke:rgb(12.941177%,12.941177%,12.941177%);stroke-opacity:1;stroke-miterlimit:4;" d="M 27.810058 132.54347 C 27.726733 135.876485 28.559987 139.126175 30.226494 141.959238 L 77.888609 224.534685 C 81.096636 230.075823 87.012738 233.533826 93.470455 233.533826 L 188.753022 233.533826 C 195.210739 233.492163 201.126841 230.075823 204.334868 224.534685 L 251.996983 141.959238 C 255.20501 136.4181 255.20501 129.543757 251.996983 124.002619 L 204.334868 41.468834 C 201.126841 35.886034 195.210739 32.469693 188.753022 32.469693 L 93.470455 32.469693 C 87.012738 32.469693 81.096636 35.886034 77.888609 41.468834 L 30.226494 124.002619 C 28.726637 126.585706 27.893383 129.543757 27.810058 132.54347 Z M 27.810058 132.54347 " transform="matrix(0.093759,0,0,0.093759,18.861308,10.748644)"/>
<path style=" stroke:none;fill-rule:nonzero;fill:url(#linear3);" d="M 5.144531 13.738281 C 5.136719 14.046875 5.214844 14.351562 5.371094 14.621094 L 9.839844 22.359375 C 10.140625 22.882812 10.695312 23.203125 11.300781 23.203125 L 20.234375 23.203125 C 20.839844 23.203125 21.394531 22.882812 21.695312 22.359375 L 26.164062 14.621094 C 26.464844 14.097656 26.464844 13.457031 26.164062 12.933594 L 21.695312 5.195312 C 21.394531 4.671875 20.839844 4.351562 20.234375 4.351562 L 11.300781 4.351562 C 10.695312 4.351562 10.140625 4.671875 9.839844 5.195312 L 5.371094 12.933594 C 5.230469 13.179688 5.152344 13.457031 5.144531 13.738281 Z M 5.144531 13.738281 "/>
<path style=" stroke:none;fill-rule:nonzero;fill:rgb(100%,100%,100%);fill-opacity:0.392157;" d="M 11.300781 4.351562 C 10.695312 4.351562 10.140625 4.671875 9.839844 5.195312 L 5.371094 12.933594 C 5.230469 13.179688 5.152344 13.457031 5.144531 13.738281 C 5.140625 13.882812 5.15625 14.027344 5.191406 14.167969 C 5.230469 14.011719 5.289062 13.859375 5.371094 13.714844 L 9.839844 5.976562 C 10.140625 5.453125 10.695312 5.132812 11.300781 5.132812 L 20.234375 5.132812 C 20.839844 5.132812 21.394531 5.453125 21.695312 5.976562 L 26.164062 13.714844 C 26.246094 13.859375 26.308594 14.011719 26.34375 14.167969 C 26.441406 13.753906 26.382812 13.3125 26.164062 12.933594 L 21.695312 5.195312 C 21.394531 4.671875 20.839844 4.351562 20.234375 4.351562 Z M 11.300781 4.351562 "/>
<path style=" stroke:none;fill-rule:nonzero;fill:rgb(0%,0%,0%);fill-opacity:0.235294;" d="M 11.300781 23.203125 C 10.695312 23.203125 10.140625 22.878906 9.839844 22.359375 L 5.371094 14.621094 C 5.230469 14.375 5.152344 14.097656 5.144531 13.816406 C 5.140625 13.671875 5.15625 13.527344 5.191406 13.386719 C 5.230469 13.542969 5.289062 13.695312 5.371094 13.835938 L 9.839844 21.578125 C 10.140625 22.097656 10.695312 22.421875 11.300781 22.421875 L 20.234375 22.421875 C 20.839844 22.421875 21.394531 22.097656 21.695312 21.578125 L 26.164062 13.835938 C 26.246094 13.695312 26.308594 13.542969 26.34375 13.386719 C 26.441406 13.796875 26.382812 14.242188 26.164062 14.621094 L 21.695312 22.359375 C 21.394531 22.878906 20.839844 23.203125 20.234375 23.203125 Z M 11.300781 23.203125 "/>
<path style="fill:none;stroke-width:3;stroke-linecap:round;stroke-linejoin:round;stroke:rgb(12.941177%,12.941177%,12.941177%);stroke-opacity:1;stroke-miterlimit:4;" d="M 27.80475 132.568827 C 27.721425 135.860179 28.554679 139.109869 30.221186 141.984594 L 77.883301 224.51838 C 81.091328 230.10118 87.00743 233.51752 93.465147 233.51752 L 188.747714 233.51752 C 195.205431 233.51752 201.121533 230.10118 204.32956 224.51838 L 251.991675 141.984594 C 255.199702 136.401794 255.199702 129.569113 251.991675 123.986313 L 204.32956 41.452528 C 201.121533 35.869728 195.205431 32.453387 188.747714 32.453387 L 93.465147 32.453387 C 87.00743 32.453387 81.091328 35.869728 77.883301 41.452528 L 30.221186 123.986313 C 28.721329 126.611063 27.888076 129.569113 27.80475 132.568827 Z M 27.80475 132.568827 " transform="matrix(0.093759,0,0,0.093759,2.537587,1.308767)"/>
</g>
</svg>
